svgs/1F9B2.svg

<svg xmlns="http://www.w3.org/2000/svg" xmlns:xlink="http://www.w3.org/1999/xlink" preserveAspectRatio="none" viewBox="0 0 72 72"><defs><path id="b" fill="#E59600" d="M106.9 66.05h-3.6v20.3q4.75 0 7.85-2.4 3.6-2.8 3.6-8.05 0-5.3-3.9-8.1l-3.95-1.75z"/><path id="c" fill="#E59600" d="M24.7 66.05h-3.65l-3.9 1.75q-3.95 2.8-3.95 8.1 0 5.25 3.6 8.05 3.1 2.4 7.9 2.4v-20.3z"/><path id="d" fill="#FCC21B" d="M106.75 73.8q0-30.45-8.65-45.45Q87.85 10.6 64 10.6q-23.9 0-34.15 17.75-8.65 15-8.65 45.45 0 25.9 14.6 38.45Q47.05 122 64 122q16.8 0 28.1-9.65 14.65-12.55 14.65-38.55z"/><path id="a" fill="none" stroke="#2F2F2F" stroke-linecap="round" stroke-linejoin="round" stroke-width="3" d="M68.5 68.5h-65v-65h65v65z"/></defs><use xlink:href="#a"/><use transform="matrix(.4926 0 0 .4926 4.5 2.1)" xlink:href="#b"/><use transform="matrix(.4926 0 0 .4926 4.5 2.1)" xlink:href="#c"/><use transform="matrix(.49268 0 0 .49268 4.5 3.35)" xlink:href="#d"/></svg>

<svg xmlns="http://www.w3.org/2000/svg" version="1.1" xmlns:xlink="http://www.w3.org/1999/xlink" preserveAspectRatio="none" x="0px" y="0px" width="72px" height="72px" viewBox="0 0 72 72">
<defs>
<g id="Layer0_1_MEMBER_0_MEMBER_0_FILL">
<path fill="#E59600" stroke="none" d="
M 106.9 66.05
L 103.3 66.05 103.3 86.35
Q 108.05 86.35 111.15 83.95 114.75 81.15 114.75 75.9 114.75 70.6 110.85 67.8
L 106.9 66.05 Z"/>
</g>

<g id="Layer0_1_MEMBER_0_MEMBER_1_FILL">
<path fill="#E59600" stroke="none" d="
M 24.7 66.05
L 21.05 66.05 17.15 67.8
Q 13.2 70.6 13.2 75.9 13.2 81.15 16.8 83.95 19.9 86.35 24.7 86.35
L 24.7 66.05 Z"/>
</g>

<g id="Layer0_1_MEMBER_1_FILL">
<path fill="#FCC21B" stroke="none" d="
M 106.75 73.8
Q 106.75 43.35 98.1 28.35 87.85 10.6 64 10.6 40.1 10.6 29.85 28.35 21.2 43.35 21.2 73.8 21.2 99.7 35.8 112.25 47.05 122 64 122 80.8 122 92.1 112.35 106.75 99.8 106.75 73.8 Z"/>
</g>

<path id="Layer0_0_1_STROKES" stroke="#2F2F2F" stroke-width="3" stroke-linejoin="round" stroke-linecap="round" fill="none" d="
M 68.5 68.5
L 3.5 68.5 3.5 3.5 68.5 3.5 68.5 68.5 Z"/>
</defs>

<g id="Camada_1">
<g transform="matrix( 1, 0, 0, 1, 0,0) ">
<use xlink:href="#Layer0_0_1_STROKES"/>
</g>

<g transform="matrix( 0.4925994873046875, 0, 0, 0.4925994873046875, 4.5,2.1) ">
<use xlink:href="#Layer0_1_MEMBER_0_MEMBER_0_FILL"/>
</g>

<g transform="matrix( 0.4925994873046875, 0, 0, 0.4925994873046875, 4.5,2.1) ">
<use xlink:href="#Layer0_1_MEMBER_0_MEMBER_1_FILL"/>
</g>

<g transform="matrix( 0.49267578125, 0, 0, 0.49267578125, 4.5,3.35) ">
<use xlink:href="#Layer0_1_MEMBER_1_FILL"/>
</g>
</g>
</svg>
